;FLAVOR:UltiGCode
;TIME:1331
;MATERIAL:993
;MATERIAL2:0
;NOZZLE_DIAMETER:0.400000
;NOZZLE_DIAMETER2:0.400000
;MTYPE:PLA

;Layer count: 217
;LAYER:0
M107
G0 F7200 X127.309 Y112.609 Z0.260
G0 X129.283 Y112.616
;TYPE:SKIRT
G1 F1200 X129.418 Y112.476 E0.01770
G1 X134.459 Y112.558 E0.47649
G1 X134.586 Y112.619 E0.48931
G1 X135.960 Y112.617 E0.61435
G1 X136.683 Y113.625 E0.72723
G1 X136.872 Y113.716 E0.74632
G1 X136.916 Y113.728 E0.75047
G1 X136.939 Y113.748 E0.75324
G1 X142.885 Y116.600 E1.35335
G1 X142.198 Y118.260 E1.51684
G1 X145.257 Y120.885 E1.88365
G1 X142.232 Y123.487 E2.24675
G1 X142.656 Y124.489 E2.34576
G1 X142.885 Y124.599 E2.36888
G1 X142.795 Y124.817 E2.39034
G1 X142.933 Y125.143 E2.42255
G1 X142.592 Y125.308 E2.45703
G1 X142.195 Y126.266 E2.55139
G1 X145.248 Y128.893 E2.91791
G1 X142.232 Y131.487 E3.27991
G1 X142.933 Y133.142 E3.44347
G1 X136.950 Y136.029 E4.04800
G1 X136.916 Y136.059 E4.05212
G1 X136.851 Y136.077 E4.05826
G1 X136.674 Y136.163 E4.07617
G1 X135.959 Y137.156 E4.18752
G1 X134.613 Y137.157 E4.31000
G1 X134.440 Y137.241 E4.32750
G1 X129.393 Y137.282 E4.78680
G1 X129.278 Y137.163 E4.80186
G1 X127.307 Y137.165 E4.98122
G1 X124.336 Y133.033 E5.44434
G1 X122.343 Y128.886 E5.86303
G1 X124.269 Y124.893 E6.26646
G1 X122.343 Y120.886 E6.67103
G1 X124.338 Y116.751 E7.08882
G1 X127.309 Y112.609 E7.55268
G1 X129.283 Y112.616 E7.73231
G0 F7200 X129.432 Y112.967
G1 F1200 X129.565 Y112.829 E7.74975
G1 X134.377 Y112.906 E8.18770
G1 X134.508 Y112.969 E8.20093
G1 X135.780 Y112.967 E8.31668
G1 X136.449 Y113.900 E8.42116
G1 X142.435 Y116.772 E9.02533
G1 X141.777 Y118.361 E9.18184
G1 X144.720 Y120.886 E9.53471
G1 X141.810 Y123.389 E9.88401
G1 X142.385 Y124.747 E10.01821
G1 X142.435 Y124.771 E10.02325
G1 X142.415 Y124.818 E10.02790
G1 X142.481 Y124.973 E10.04323
G1 X142.319 Y125.051 E10.05959
G1 X141.775 Y126.367 E10.18918
G1 X144.711 Y128.893 E10.54163
G1 X141.810 Y131.388 E10.88982
G1 X142.481 Y132.972 E11.04637
G1 X136.756 Y135.735 E11.62484
G1 X136.747 Y135.743 E11.62594
G1 X136.729 Y135.748 E11.62764
G1 X136.440 Y135.888 E11.65686
G1 X135.779 Y136.806 E11.75980
G1 X134.534 Y136.807 E11.87310
G1 X134.359 Y136.892 E11.89080
G1 X129.541 Y136.930 E12.32925
G1 X129.428 Y136.813 E12.34405
G1 X127.486 Y136.815 E12.52078
G1 X124.638 Y132.854 E12.96473
G1 X122.731 Y128.887 E13.36527
G1 X124.639 Y124.932 E13.76487
G1 X124.667 Y124.894 E13.76916
G1 X124.641 Y124.858 E13.77320
G1 X122.731 Y120.887 E14.17419
G1 X124.640 Y116.931 E14.57391
G1 X127.489 Y112.960 E15.01866
G1 X129.432 Y112.967 E15.19547
G0 F7200 X129.580 Y113.317
G1 F1200 X129.711 Y113.181 E15.21265
G1 X134.295 Y113.255 E15.62985
G1 X134.430 Y113.320 E15.64349
G1 X135.601 Y113.318 E15.75005
G1 X136.218 Y114.178 E15.84637
G1 X141.985 Y116.945 E16.42844
G1 X141.357 Y118.462 E16.57785
G1 X144.182 Y120.886 E16.91659
G1 X141.388 Y123.289 E17.25195
G1 X142.029 Y124.803 E17.40156
G1 X141.861 Y124.884 E17.41853
G1 X141.985 Y124.944 E17.43107
G1 X141.355 Y126.467 E17.58105
G1 X144.174 Y128.893 E17.91949
G1 X141.388 Y131.289 E18.25388
G1 X142.029 Y132.802 E18.40341
G1 X136.208 Y135.612 E18.99161
G1 X135.600 Y136.456 E19.08627
G1 X134.456 Y136.457 E19.19037
G1 X134.278 Y136.543 E19.20836
G1 X129.688 Y136.579 E19.62607
G1 X129.576 Y136.463 E19.64074
G1 X127.666 Y136.465 E19.81455
G1 X124.941 Y132.674 E20.23941
G1 X123.120 Y128.887 E20.62180
G1 X124.941 Y125.111 E21.00328
G1 X125.097 Y124.893 E21.02768
G1 X124.943 Y124.679 E21.05167
G1 X123.120 Y120.887 E21.43455
G1 X124.942 Y117.110 E21.81615
G1 X127.668 Y113.310 E22.24173
G1 X129.580 Y113.317 E22.41572
G0 F7200 X129.728 Y113.668
G1 F1200 X129.858 Y113.533 E22.43278
G1 X134.212 Y113.604 E22.82904
G1 X134.349 Y113.670 E22.84288
G1 X135.421 Y113.668 E22.94044
G1 X135.985 Y114.455 E23.02854
G1 X141.535 Y117.117 E23.58868
G1 X140.937 Y118.562 E23.73099
G1 X143.645 Y120.886 E24.05573
G1 X140.966 Y123.190 E24.37727
G1 X141.577 Y124.632 E24.51979
G1 X141.053 Y124.885 E24.57274
G1 X141.535 Y125.116 E24.62138
G1 X140.935 Y126.567 E24.76427
G1 X143.638 Y128.893 E25.08877
G1 X140.966 Y131.191 E25.40948
G1 X141.577 Y132.631 E25.55183
G1 X135.975 Y135.334 E26.11785
G1 X135.420 Y136.106 E26.20437
G1 X134.374 Y136.107 E26.29956
G1 X134.196 Y136.193 E26.31755
G1 X129.836 Y136.228 E26.71432
G1 X129.725 Y136.113 E26.72886
G1 X127.845 Y136.115 E26.89994
G1 X125.243 Y132.495 E27.30563
G1 X123.508 Y128.887 E27.66995
G1 X125.243 Y125.290 E28.03337
G1 X125.529 Y124.892 E28.07797
G1 X125.245 Y124.499 E28.12209
G1 X123.508 Y120.887 E28.48681
G1 X125.244 Y117.289 E28.85035
G1 X127.847 Y113.661 E29.25668
G1 X129.728 Y113.668 E29.42785
G0 F7200 X129.876 Y114.018
G1 F1200 X130.004 Y113.886 E29.44459
G1 X134.130 Y113.952 E29.82010
G1 X134.271 Y114.020 E29.83435
G1 X135.242 Y114.018 E29.92271
G1 X135.753 Y114.731 E30.00253
G1 X141.085 Y117.289 E30.54069
G1 X140.517 Y118.663 E30.67599
G1 X143.108 Y120.887 E30.98672
G1 X140.544 Y123.092 E31.29446
G1 X141.124 Y124.462 E31.42984
G1 X140.246 Y124.886 E31.51856
G1 X141.085 Y125.288 E31.60323
G1 X140.514 Y126.667 E31.73905
G1 X143.101 Y128.893 E32.04962
G1 X140.544 Y131.092 E32.35652
G1 X141.124 Y132.461 E32.49181
G1 X135.744 Y135.058 E33.03545
G1 X135.241 Y135.757 E33.11382
G1 X134.293 Y135.758 E33.20008
G1 X134.115 Y135.844 E33.21807
G1 X129.984 Y135.877 E33.59401
G1 X129.873 Y135.762 E33.60855
G1 X128.024 Y135.764 E33.77681
G1 X125.545 Y132.316 E34.16326
G1 X123.897 Y128.887 E34.50946
G1 X125.545 Y125.470 E34.85468
G1 X125.959 Y124.892 E34.91938
G1 X125.547 Y124.320 E34.98353
G1 X123.897 Y120.887 E35.33014
G1 X125.546 Y117.469 E35.67549
G1 X128.026 Y114.012 E36.06265
G1 X129.876 Y114.018 E36.23100
G0 F7200 X130.024 Y114.369
G1 F1200 X130.150 Y114.238 E36.24754
G1 X134.048 Y114.301 E36.60231
G1 X134.192 Y114.370 E36.61684
G1 X135.062 Y114.369 E36.69601
G1 X135.520 Y115.007 E36.76748
G1 X140.635 Y117.462 E37.28378
G1 X140.096 Y118.764 E37.41201
G1 X142.571 Y120.887 E37.70875
G1 X140.122 Y122.994 E38.00273
G1 X140.672 Y124.292 E38.13102
G1 X139.439 Y124.887 E38.25560
G1 X140.635 Y125.461 E38.37632
G1 X140.094 Y126.768 E38.50505
G1 X142.564 Y128.893 E38.80155
G1 X140.122 Y130.993 E39.09464
G1 X140.672 Y132.291 E39.22293
G1 X135.511 Y134.781 E39.74438
G1 X135.061 Y135.407 E39.81454
G1 X134.213 Y135.408 E39.89171
G1 X134.034 Y135.494 E39.90978
G1 X130.131 Y135.526 E40.26496
G1 X130.021 Y135.412 E40.27938
G1 X128.204 Y135.414 E40.44473
G1 X125.847 Y132.136 E40.81213
G1 X124.285 Y128.888 E41.14010
G1 X125.848 Y125.649 E41.46737
G1 X126.391 Y124.891 E41.55222
G1 X125.849 Y124.140 E41.63650
G1 X124.285 Y120.888 E41.96488
G1 X125.848 Y117.648 E42.29224
G1 X128.205 Y114.362 E42.66023
G1 X130.024 Y114.369 E42.82576
G0 F7200 X130.173 Y114.719
G1 F1200 X130.297 Y114.591 E42.84198
G1 X133.965 Y114.650 E43.17581
G1 X134.111 Y114.720 E43.19055
G1 X134.883 Y114.719 E43.26080
G1 X135.289 Y115.285 E43.32418
G1 X140.185 Y117.634 E43.81835
G1 X139.676 Y118.864 E43.93948
G1 X142.034 Y120.887 E44.22221
G1 X139.700 Y122.894 E44.50233
G1 X140.220 Y124.121 E44.62360
G1 X138.631 Y124.888 E44.78416
G1 X140.185 Y125.633 E44.94099
G1 X139.674 Y126.868 E45.06261
G1 X142.028 Y128.893 E45.34518
G1 X139.701 Y130.895 E45.62452
G1 X140.220 Y132.120 E45.74559
G1 X135.280 Y134.504 E46.24474
G1 X134.882 Y135.057 E46.30674
G1 X134.133 Y135.058 E46.37490
G1 X133.952 Y135.145 E46.39317
G1 X130.279 Y135.174 E46.72743
G1 X130.171 Y135.062 E46.74159
G1 X128.383 Y135.064 E46.90429
G1 X126.149 Y131.957 E47.25253
G1 X124.674 Y128.888 E47.56239
G1 X126.150 Y125.828 E47.87155
G1 X126.775 Y124.957 E47.96911
G1 X126.824 Y124.893 E47.97644
G1 X126.151 Y123.960 E48.08113
G1 X124.674 Y120.888 E48.39131
G1 X126.150 Y117.828 E48.70047
G1 X128.385 Y114.713 E49.04935
G1 X130.173 Y114.719 E49.21206
G0 F7200 X130.321 Y115.070
G1 F1200 X130.443 Y114.943 E49.22809
G1 X133.883 Y114.999 E49.54117
G1 X134.031 Y115.070 E49.55611
G1 X134.703 Y115.069 E49.61726
G1 X135.057 Y115.562 E49.67249
G1 X139.735 Y117.806 E50.14463
G1 X139.256 Y118.964 E50.25867
G1 X141.497 Y120.888 E50.52745
G1 X139.278 Y122.796 E50.79376
G1 X139.767 Y123.951 E50.90790
G1 X137.824 Y124.889 E51.10424
G1 X139.735 Y125.805 E51.29708
G1 X139.254 Y126.968 E51.41161
G1 X141.491 Y128.893 E51.68017
G1 X139.278 Y130.796 E51.94577
G1 X139.767 Y131.950 E52.05983
G1 X135.046 Y134.229 E52.53688
G1 X134.702 Y134.707 E52.59047
G1 X134.054 Y134.708 E52.64944
G1 X133.871 Y134.796 E52.66791
G1 X130.426 Y134.823 E52.98142
G1 X130.319 Y134.712 E52.99545
G1 X128.562 Y134.714 E53.15534
G1 X126.451 Y131.778 E53.48440
G1 X125.062 Y128.888 E53.77619
G1 X126.452 Y126.008 E54.06720
G1 X127.056 Y125.164 E54.16165
G1 X127.258 Y124.898 E54.19204
G1 X126.453 Y123.781 E54.31733
G1 X125.062 Y120.888 E54.60945
G1 X126.452 Y118.007 E54.90054
G1 X128.564 Y115.063 E55.23025
G1 X130.321 Y115.070 E55.39014
G0 F7200 X130.470 Y115.420
G1 F1200 X130.590 Y115.296 E55.40584
G1 X133.801 Y115.347 E55.69808
G1 X133.953 Y115.420 E55.71342
G1 X134.524 Y115.419 E55.76538
G1 X134.825 Y115.838 E55.81233
G1 X139.285 Y117.978 E56.26249
G1 X138.835 Y119.065 E56.36955
G1 X140.960 Y120.888 E56.62433
G1 X138.856 Y122.698 E56.87690
G1 X139.315 Y123.781 E56.98394
G1 X137.017 Y124.889 E57.21609
G1 X139.285 Y125.977 E57.44500
G1 X138.833 Y127.068 E57.55246
G1 X140.954 Y128.893 E57.80709
G1 X138.856 Y130.697 E58.05888
G1 X139.315 Y131.780 E58.16592
G1 X134.815 Y133.951 E58.62059
G1 X134.523 Y134.357 E58.66610
G1 X133.972 Y134.358 E58.71624
G1 X133.789 Y134.446 E58.73472
G1 X130.574 Y134.472 E59.02729
G1 X130.468 Y134.362 E59.04119
G1 X128.741 Y134.364 E59.19835
G1 X126.753 Y131.598 E59.50832
G1 X125.451 Y128.888 E59.78192
G1 X126.754 Y126.187 E60.05481
G1 X127.338 Y125.372 E60.14605
G1 X127.694 Y124.903 E60.19964
G1 X126.755 Y123.601 E60.34572
G1 X125.451 Y120.888 E60.61964
G1 X126.754 Y118.186 E60.89262
G1 X128.743 Y115.414 E61.20309
G1 X130.470 Y115.420 E61.36024
G0 F7200 X130.617 Y115.771
G1 F1200 X130.736 Y115.648 E61.37582
G1 X133.719 Y115.696 E61.64731
G1 X133.875 Y115.771 E61.66306
G1 X134.344 Y115.770 E61.70574
G1 X134.591 Y116.115 E61.74435
G1 X138.835 Y118.151 E62.17269
G1 X138.415 Y119.165 E62.27257
G1 X140.423 Y120.888 E62.51335
G1 X138.434 Y122.599 E62.75210
G1 X138.863 Y123.610 E62.85204
G1 X136.210 Y124.890 E63.12010
G1 X138.835 Y126.150 E63.38506
G1 X138.414 Y127.169 E63.48540
G1 X140.418 Y128.893 E63.72596
G1 X138.435 Y130.599 E63.96400
G1 X138.863 Y131.609 E64.06382
G1 X134.584 Y133.674 E64.49618
G1 X134.344 Y134.008 E64.53361
G1 X133.892 Y134.008 E64.57474
G1 X133.708 Y134.097 E64.59334
G1 X130.721 Y134.121 E64.86517
G1 X130.615 Y134.011 E64.87907
G1 X128.921 Y134.013 E65.03322
G1 X127.055 Y131.419 E65.32401
G1 X125.839 Y128.889 E65.57945
G1 X127.056 Y126.366 E65.83436
G1 X127.620 Y125.580 E65.92239
G1 X128.129 Y124.909 E65.99903
G1 X127.057 Y123.422 E66.16585
G1 X125.839 Y120.889 E66.42161
G1 X127.056 Y118.366 E66.67652
G1 X128.922 Y115.765 E66.96782
G1 X130.617 Y115.771 E67.12207
G0 F7200 X130.765 Y116.121
G1 F1200 X130.882 Y116.000 E67.13739
G1 X133.636 Y116.045 E67.38803
G1 X133.793 Y116.121 E67.40391
G1 X134.165 Y116.120 E67.43776
G1 X134.361 Y116.393 E67.46834
G1 X138.385 Y118.323 E67.87446
G1 X137.995 Y119.266 E67.96733
G1 X139.886 Y120.889 E68.19410
G1 X138.012 Y122.501 E68.41904
G1 X138.410 Y123.440 E68.51185
G1 X135.403 Y124.891 E68.81568
G1 X138.385 Y126.322 E69.11667
G1 X137.993 Y127.268 E69.20985
G1 X139.881 Y128.893 E69.43654
G1 X138.012 Y130.500 E69.66084
G1 X138.410 Y131.439 E69.75365
G1 X134.350 Y133.399 E70.16391
G1 X134.164 Y133.658 E70.19292
G1 X133.813 Y133.658 E70.22487
G1 X133.627 Y133.748 E70.24367
G1 X130.869 Y133.770 E70.49465
G1 X130.764 Y133.661 E70.50843
G1 X129.100 Y133.663 E70.65985
G1 X127.358 Y131.239 E70.93149
G1 X126.228 Y128.889 E71.16878
G1 X127.358 Y126.546 E71.40549
G1 X127.901 Y125.788 E71.49034
G1 X128.564 Y124.914 E71.59017
G1 X127.359 Y123.242 E71.77772
G1 X126.228 Y120.889 E72.01529
G1 X127.358 Y118.545 E72.25209
G1 X129.101 Y116.115 E72.52422
G1 X130.765 Y116.121 E72.67565
G0 F7200 X130.914 Y116.472
G1 F1200 X131.029 Y116.353 E72.69071
G1 X133.554 Y116.393 E72.92051
G1 X133.715 Y116.470 E72.93675
G1 X133.985 Y116.470 E72.96132
G1 X134.127 Y116.668 E72.98349
G1 X137.935 Y118.495 E73.36784
G1 X137.574 Y119.366 E73.45364
G1 X139.349 Y120.889 E73.66647
G1 X137.590 Y122.401 E73.87755
G1 X137.958 Y123.270 E73.96343
G1 X134.596 Y124.892 E74.30312
G1 X137.935 Y126.494 E74.64013
G1 X137.573 Y127.369 E74.72630
G1 X139.344 Y128.893 E74.93891
G1 X137.590 Y130.401 E75.14941
G1 X137.958 Y131.269 E75.23520
G1 X134.120 Y133.121 E75.62300
G1 X133.985 Y133.308 E75.64399
G1 X133.731 Y133.308 E75.66710
G1 X133.545 Y133.398 E75.68590
G1 X131.017 Y133.419 E75.91596
G1 X130.913 Y133.311 E75.92960
G1 X129.279 Y133.313 E76.07830
G1 X127.660 Y131.060 E76.33077
G1 X126.616 Y128.889 E76.54998
G1 X127.660 Y126.725 E76.76863
G1 X128.183 Y125.995 E76.85034
G1 X128.999 Y124.919 E76.97323
G1 X127.661 Y123.063 E77.18144
G1 X126.616 Y120.889 E77.40094
G1 X127.660 Y118.725 E77.61959
G1 X129.280 Y116.466 E77.87255
G1 X130.914 Y116.472 E78.02125
G0 F7200 X131.062 Y116.823
G1 F1200 X131.175 Y116.705 E78.03611
G1 X133.472 Y116.742 E78.24517
G1 X133.635 Y116.820 E78.26161
G1 X133.806 Y116.820 E78.27717
G1 X133.896 Y116.945 E78.29119
G1 X137.485 Y118.667 E78.65344
G1 X137.154 Y119.467 E78.73222
G1 X138.811 Y120.889 E78.93092
G1 X137.168 Y122.302 E79.12812
G1 X137.506 Y123.099 E79.20690
G1 X133.891 Y124.844 E79.57219
G1 X133.855 Y124.894 E79.57779
G1 X133.889 Y124.941 E79.58307
G1 X137.485 Y126.666 E79.94601
G1 X137.153 Y127.469 E80.02508
G1 X138.808 Y128.892 E80.22370
G1 X137.169 Y130.302 E80.42045
G1 X137.506 Y131.098 E80.49911
G1 X133.886 Y132.845 E80.86489
G1 X133.805 Y132.958 E80.87754
G1 X133.652 Y132.958 E80.89146
G1 X133.464 Y133.049 E80.91047
G1 X131.164 Y133.067 E81.11977
G1 X131.062 Y132.961 E81.13316
G1 X129.459 Y132.963 E81.27903
G1 X127.962 Y130.881 E81.51239
G1 X127.005 Y128.889 E81.71349
G1 X127.962 Y126.904 E81.91402
G1 X128.465 Y126.203 E81.99254
G1 X129.435 Y124.925 E82.13854
G1 X127.963 Y122.883 E82.36761
G1 X127.005 Y120.889 E82.56892
G1 X127.962 Y118.904 E82.76945
G1 X129.460 Y116.817 E83.00323
G1 X131.062 Y116.823 E83.14901
G0 F7200 X131.211 Y117.173
G1 F1200 X131.322 Y117.058 E83.16356
G1 X133.389 Y117.091 E83.35168
G1 X133.556 Y117.171 E83.36853
G1 X133.626 Y117.171 E83.37490
G1 X133.663 Y117.222 E83.38063
G1 X137.035 Y118.840 E83.72098
G1 X136.734 Y119.568 E83.79267
G1 X138.274 Y120.889 E83.97730
G1 X136.747 Y122.203 E84.16062
G1 X137.054 Y122.929 E84.23235
G1 X133.658 Y124.568 E84.57550
G1 X133.614 Y124.630 E84.58242
G1 X133.532 Y124.629 E84.58988
G1 X133.383 Y124.701 E84.60494
G1 X131.312 Y124.717 E84.79341
G1 X131.210 Y124.611 E84.80679
G1 X129.641 Y124.611 E84.94957
G1 X128.265 Y122.703 E85.16364
G1 X127.393 Y120.890 E85.34672
G1 X128.264 Y119.083 E85.52926
G1 X129.639 Y117.167 E85.74387
G1 X131.211 Y117.173 E85.88692
G0 F7200 X131.358 Y117.524
G1 F1200 X131.468 Y117.410 E85.90133
G1 X133.307 Y117.440 E86.06871
G1 X136.584 Y119.012 E86.39945
G1 X136.313 Y119.668 E86.46404
G1 X137.737 Y120.890 E86.63479
G1 X136.324 Y122.105 E86.80438
G1 X136.601 Y122.759 E86.86901
G1 X133.301 Y124.351 E87.20243
G1 X131.459 Y124.366 E87.37006
G1 X131.358 Y124.262 E87.38325
G1 X131.281 Y124.261 E87.39026
G1 X129.820 Y124.261 E87.52321
G1 X128.567 Y122.524 E87.71811
G1 X127.782 Y120.890 E87.88307
G1 X128.567 Y119.263 E88.04746
G1 X129.818 Y117.518 E88.24285
G1 X131.358 Y117.524 E88.38299
G0 F7200 X131.506 Y117.874
G1 F1200 X131.614 Y117.762 E88.39715
G1 X133.225 Y117.788 E88.54377
G1 X136.134 Y119.184 E88.83739
G1 X135.893 Y119.768 E88.89488
G1 X137.200 Y120.890 E89.05163
G1 X135.902 Y122.006 E89.20740
G1 X136.149 Y122.588 E89.26494
G1 X133.220 Y124.002 E89.56091
G1 X131.607 Y124.015 E89.70770
G1 X131.507 Y123.912 E89.72076
G1 X131.387 Y123.912 E89.73168
G1 X131.286 Y123.911 E89.74087
G1 X129.999 Y123.911 E89.85799
G1 X128.869 Y122.344 E90.03380
G1 X128.170 Y120.890 E90.18061
G1 X128.869 Y119.442 E90.32693
G1 X129.997 Y117.869 E90.50307
G1 X131.440 Y117.874 E90.63438
G1 X131.506 Y117.874 E90.64039
